X: 4202
T: The Maid of Isla    a Strathspey
%R: strathspey
B: Niel Gow & Sons "A Fourth Collection of Strathspey Reels, etc." v.4 p.20 #2 (and top 6 staves of p.21)
Z: 2022 John Chambers <jc:trillian.mit.edu>
M: C
L: 1/16
Q: "Slow"
K: F
% - - - - - - - - - -
V: 1 staves=2
A2 | (.F2.F2) c3A Tc3dc3A | (.F2.F2) c3A d3c A4 |\
F2~F2c3A Tc3dc2A2 | Td3e{e}f3d | c2A2 [G2E2] :|
c2 | Tf3gf2d2 Tc3dc2A2 | Tf3gf3d (c2d2)A3c |\
Tf3gf2d2 Tc2d2c2A2 | ~d3e{e}f3d (.c2.A2) [G4E4] |
Tf3g (gf)ed ~c3d (dc)(BA) | ~f3a (gf)(ed) c2a2A3c |\
~f3ad3f c3dHf3g | ("^dim."ag)(fe) ("dim."gf)(ed) "^dim."(dc)(BA) [G2E2] |]
% - - - - - - - - - -
% Voice 2 preserves the staff layout in the book.
V: 2 nm=Harp.d clef=bass middle=d
z2 |\
fc'ac' fc'ac' ac'bd' ac'fc' | fc'ac' fc'ac' Bcde f2F2 |\
FfFf AfFf AfBf AfFf | Bfcf dfBf FGAB c2 :|
z2 |\
[ac']f[ac']f [ac']f[bd']f [ac']f[bd']f [ac']f[ac']f | [ac']f[ac']f [ac']f[bd']f [ac']f[bd']f [ac']f[ac']f |\
[ac']f[ac']f [ac']f[bd']f [ac']f[bd']f [ac']f[ac']f | bfc'f d'fbf fgab c'2c2 |
[ac']f[ac']f [ac']f[bd']f [ac']f[bd']f [ac']f[ac']f | fac'f' e'd'c'b a4 f4 |\
AfAf BfBf AfBf AHf2z | f4 b4 fgab c'2 |]
% - - - - - - - - - -
% Voice 3 preserves the staff layout in the book.
V: 3 nm=Viol.lo clef=bass middle=d
z2 | F2f2 F2f2 F2f2 F2f2 | F2f2 F2f2 B2f2 F2f2 | F2f2F2f2 A2f2 F2f2 | B2c2d2B2 A2F2 c2 :|
z2 | F2f2 F4 F2f2 F4 | F2f2 F2B2 A2B2 F4 | F2f2 F4 A2B2 F4 | B4 B4 F2f2 A4 |
F2f2 F2B2 A2B2 F4 | F2f2 B4 f4 F4 | F4 B4 A2B2 HF4 | f4 B4 A2F2 [c2C2] |]
% - - - - - - - - - -
%%text I am indebted to Col. & Lady Charlote Campbell for this beautiful Tune.


